packages/rn-bitcoin-icons/svg/filled/sd-card.svg

<svg width="24" height="24" viewBox="0 0 24 24" fill="none" xmlns="http://www.w3.org/2000/svg">
<path fill-rule="evenodd" clip-rule="evenodd" d="M6 9L11 4H16.5C17.3284 4 18 4.67157 18 5.5V18.5C18 19.3284 17.3284 20 16.5 20H7.5C6.67158 20 6 19.3284 6 18.5V9ZM15.75 6C15.3358 6 15 6.33578 15 6.75V9.25C15 9.66421 15.3358 10 15.75 10C16.1642 10 16.5 9.66421 16.5 9.25V6.75C16.5 6.33578 16.1642 6 15.75 6ZM13 6.75C13 6.33578 13.3358 6 13.75 6C14.1642 6 14.5 6.33578 14.5 6.75V9.25C14.5 9.66421 14.1642 10 13.75 10C13.3358 10 13 9.66421 13 9.25V6.75ZM11.75 6C11.3358 6 11 6.33578 11 6.75V9.25C11 9.66421 11.3358 10 11.75 10C12.1642 10 12.5 9.66421 12.5 9.25V6.75C12.5 6.33578 12.1642 6 11.75 6Z" fill="black"/>
</svg>

<svg xmlns="http://www.w3.org/2000/svg" viewBox="0 0 24 24" fill="currentColor">
  <path fill-rule="evenodd" d="M6 9l5-5h5.5A1.5 1.5 0 0118 5.5v13a1.5 1.5 0 01-1.5 1.5h-9A1.5 1.5 0 016 18.5V9zm9.75-3a.75.75 0 00-.75.75v2.5a.75.75 0 001.5 0v-2.5a.75.75 0 00-.75-.75zM13 6.75a.75.75 0 011.5 0v2.5a.75.75 0 01-1.5 0v-2.5zM11.75 6a.75.75 0 00-.75.75v2.5a.75.75 0 001.5 0v-2.5a.75.75 0 00-.75-.75z" clip-rule="evenodd"/>
</svg>
